assets/images/svg/money-big.svg

<svg width="24" height="32" viewBox="0 0 24 32" fill="none" xmlns="http://www.w3.org/2000/svg">
<path d="M16.5512 8.42239C17.8991 6.78523 18.8532 4.67644 19.2083 2.64532C19.2843 2.21095 19.0945 1.77313 18.7203 1.51956C18.346 1.26607 17.854 1.24165 17.4549 1.45715C17.4347 1.46807 15.4046 2.54709 12.7468 2.54709C10.978 2.54709 9.3538 2.06123 7.91969 1.10302C7.05848 0.527773 6.37204 0.259827 5.75927 0.259827C5.17462 0.259827 4.65646 0.514359 4.3376 0.958206C4.10517 1.28173 3.98729 1.68992 3.98729 2.17143C3.98729 3.73317 5.22017 6.0932 6.27594 7.63959C6.48851 7.95091 6.72202 8.27315 6.9728 8.59202C3.66643 11.721 0.172852 16.7769 0.172852 21.2304C0.172852 28.2939 5.40221 31.1646 11.8526 31.1646C18.303 31.1646 23.5323 28.294 23.5323 21.2304C23.5323 16.6955 19.9098 11.5361 16.5512 8.42239ZM15.0556 22.9861C14.5066 23.4882 13.7719 23.8228 12.8684 23.9846V25.597C12.8684 26.1506 12.4023 26.5994 11.8273 26.5994C11.2523 26.5994 10.7863 26.1506 10.7863 25.597V24.038C9.46734 23.866 8.48016 23.316 7.85304 22.3998C7.66099 22.1194 7.6277 21.7649 7.76435 21.4559C7.90101 21.1468 8.18925 20.9241 8.53221 20.8629L9.31809 20.7224C9.72013 20.6504 10.1289 20.812 10.3626 21.1353C10.6582 21.5444 11.1584 21.7517 11.8492 21.7517C12.9133 21.7517 12.9133 21.3444 12.9133 21.2106C12.9133 21.0165 12.8377 20.8752 12.6753 20.7663C12.5094 20.6549 12.2072 20.5559 11.7773 20.4717C10.0486 20.1325 8.93508 19.6923 8.46672 19.163C7.99169 18.6261 7.76068 18.026 7.76068 17.3284C7.76068 16.5707 8.02047 15.8887 8.53305 15.3014C9.02902 14.7328 9.78737 14.3638 10.7863 14.2027V13.0488C10.7863 12.4952 11.2523 12.0465 11.8273 12.0465C12.4023 12.0465 12.8684 12.4952 12.8684 13.0488V14.2241C13.7627 14.3885 14.4606 14.7364 14.9908 15.2824C15.2353 15.5342 15.3282 15.8893 15.237 16.2224C15.1457 16.5557 14.8829 16.8205 14.5414 16.9234L14.0021 17.0859C13.611 17.2038 13.1843 17.0896 12.9123 16.7943C12.6411 16.4999 12.2384 16.3507 11.7157 16.3507C11.2947 16.3507 10.7927 16.4471 10.7927 16.9069C10.7927 17.0371 10.8446 17.1544 10.9426 17.2465C11.0452 17.3429 11.3444 17.4452 11.8323 17.5499C12.9581 17.787 13.7811 18.0033 14.2738 18.1921C14.773 18.3838 15.1938 18.7121 15.5246 19.1681C15.8557 19.6234 16.0238 20.1695 16.0238 20.7903C16.0239 21.6597 15.6982 22.3985 15.0556 22.9861ZM11.127 9.09498C10.9078 9.09498 10.2297 8.79266 9.23325 7.64843C8.43844 6.73584 7.65381 5.53369 7.08067 4.35026C6.79969 3.77011 6.62416 3.30595 6.51721 2.95222C6.53272 2.96234 6.54833 2.97278 6.56426 2.98346C8.40407 4.21268 10.4841 4.83588 12.7467 4.83588C14.0873 4.83588 15.2972 4.61331 16.2659 4.34665C15.1796 7.03936 13.0694 9.09498 11.127 9.09498Z" fill="white"/>
</svg>

<svg width="24" height="32" fill="none" xmlns="http://www.w3.org/2000/svg"><path d="M16.551 8.422a12.836 12.836 0 002.657-5.777 1.126 1.126 0 00-.488-1.125 1.227 1.227 0 00-1.265-.063c-.02.011-2.05 1.09-4.708 1.09-1.769 0-3.393-.486-4.827-1.444C7.058.528 6.372.26 5.76.26c-.585 0-1.104.254-1.422.698-.233.324-.35.732-.35 1.213 0 1.562 1.232 3.922 2.288 5.469.213.31.446.633.697.952-3.307 3.129-6.8 8.185-6.8 12.638 0 7.064 5.23 9.935 11.68 9.935 6.45 0 11.68-2.871 11.68-9.935 0-4.535-3.623-9.694-6.982-12.808zm-1.495 14.564c-.55.502-1.284.837-2.188.999v1.612c0 .554-.466 1.002-1.04 1.002-.576 0-1.042-.448-1.042-1.002v-1.559c-1.319-.172-2.306-.722-2.933-1.638a.97.97 0 01-.089-.944c.137-.31.425-.532.768-.593l.786-.14a1.06 1.06 0 011.045.412c.295.41.795.617 1.486.617 1.064 0 1.064-.408 1.064-.541a.496.496 0 00-.238-.445c-.166-.111-.468-.21-.898-.294-1.728-.34-2.842-.78-3.31-1.309-.475-.537-.706-1.137-.706-1.835 0-.757.26-1.44.772-2.027.496-.568 1.254-.937 2.253-1.098v-1.154c0-.554.466-1.002 1.041-1.002s1.041.448 1.041 1.002v1.175c.895.165 1.593.512 2.123 1.058a.976.976 0 01.246.94 1.02 1.02 0 01-.696.701l-.539.163a1.067 1.067 0 01-1.09-.292c-.27-.294-.674-.443-1.196-.443-.421 0-.923.096-.923.556 0 .13.052.247.15.34.102.096.401.198.89.303 1.125.237 1.948.453 2.44.642.5.192.92.52 1.252.976.33.455.499 1.002.499 1.622a2.87 2.87 0 01-.968 2.196zM11.127 9.095c-.22 0-.897-.302-1.894-1.447-.795-.912-1.58-2.114-2.152-3.298a9.695 9.695 0 01-.564-1.398l.047.031c1.84 1.23 3.92 1.853 6.183 1.853 1.34 0 2.55-.223 3.519-.49-1.086 2.693-3.197 4.749-5.139 4.749z" fill="#fff"/></svg>
